X: 615
T:Father Newman's Reel
M:C|
L:1/8
R:reel
D:Cumar
Z:Devin McCabe
N:http://www2.redhawk.org/irish/other/itunenet.abc       2002-12-22 15:27:13 UT
N:Posted to the woodenflute mailing list December 2002
K:G
de-eg edBA|~G3B dG (3Bcd|e~a3 bagb|agea ged2|
!e~g3 edBA|~G3B dG (3Bcd|e2af gedg|1edBA GA(3Bcd:|2edBA ~G3B|
!:d~G3 edBc|d~g3 fgaf|d~g3 abag|f2fe ~f3e|
!d~G3 edBc|d3g fgaf|d3g gedg|1edBA ~G3:|2edBA GA(3Bcd||

